assets/icons/snow.svg

<?xml version="1.0" encoding="UTF-8" standalone="no"?>
<svg viewBox="0 0 24 24" height="24" width="24" version="1.1" id="svg8" sodipodi:docname="snow.svg" inkscape:version="1.1 (ce6663b3b7, 2021-05-25)"
   xmlns:inkscape="http://www.inkscape.org/namespaces/inkscape"
   xmlns:sodipodi="http://sodipodi.sourceforge.net/DTD/sodipodi-0.dtd"
   xmlns="http://www.w3.org/2000/svg"
   xmlns:svg="http://www.w3.org/2000/svg">
   <defs id="defs12" />
   <sodipodi:namedview id="namedview10" pagecolor="#ffffff" bordercolor="#666666" borderopacity="1.0" inkscape:pageshadow="2" inkscape:pageopacity="0.0" inkscape:pagecheckerboard="0" showgrid="true" inkscape:snap-page="true" inkscape:zoom="32" inkscape:cx="18.421875" inkscape:cy="15.34375" inkscape:window-width="1920" inkscape:window-height="1043" inkscape:window-x="1920" inkscape:window-y="0" inkscape:window-maximized="1" inkscape:current-layer="svg8">
      <inkscape:grid type="xygrid" id="grid8" />
   </sodipodi:namedview>
   <path id="path54" style="fill:#808080;fill-rule:evenodd;fill-opacity:1" d="M 13 2 C 10.456333 2.0059 8.1928228 3.615092 7.3515625 6.015625 C 7.234661 6.005262 7.11736 6.000048 7 6 C 4.790861 6 3 7.790861 3 10 C 3 12.209139 4.790861 14 7 14 L 18 14 C 19.656854 14 21 12.656854 21 11 C 20.999782 9.724279 20.192793 8.5882257 18.988281 8.1679688 C 18.992981 8.1120367 18.99688 8.0560417 19 8 C 19 4.6862915 16.313708 2 13 2 z M 13 3 C 15.761424 3 18 5.2385763 18 8 C 17.9953 8.3396957 17.95608 8.6780323 17.882812 9.0097656 C 17.921772 9.0053656 17.960852 9.00211 18 9 C 18.299545 9.0001314 18.595234 9.067546 18.865234 9.1972656 C 19.558652 9.5299983 19.999838 10.230884 20 11 C 20 12.104569 19.104569 13 18 13 L 7 13 C 5.3431458 13 4 11.656854 4 10 C 4 8.3431458 5.3431458 7 7 7 C 7.030607 7.0001827 7.0612099 7.0008369 7.0917969 7.0019531 C 7.4259259 7.0121941 7.7559938 7.0782081 8.0683594 7.1972656 C 8.1255494 6.8667756 8.2158477 6.5428786 8.3378906 6.2304688 C 9.0717285 4.2911031 10.926447 3.0059316 13 3 z " />
   <path id="rect2195" style="fill:#808080;fill-rule:evenodd;fill-opacity:1" d="M 12 17 L 12 18.632812 L 10.583984 17.816406 L 10.083984 18.683594 L 11.498047 19.5 L 10.083984 20.316406 L 10.583984 21.183594 L 12 20.367188 L 12 22 L 13 22 L 13 20.367188 L 14.416016 21.183594 L 14.916016 20.316406 L 13.501953 19.5 L 14.916016 18.683594 L 14.416016 17.816406 L 13 18.632812 L 13 17 L 12 17 z " />
   <path id="path2284" style="fill:#808080;fill-rule:evenodd;fill-opacity:1" d="m 18,15 v 1.632812 l -1.416016,-0.816406 -0.5,0.867188 1.414063,0.816406 -1.414063,0.816406 0.5,0.867188 1.416016,-0.816406 v 1.632812 h 1 v -1.632812 l 1.416016,0.816406 0.5,-0.867188 -1.414063,-0.816406 1.414063,-0.816406 -0.5,-0.867188 -1.416016,0.816406 v -1.632812 z" />
   <path id="path2474" style="fill:#808080;fill-rule:evenodd;fill-opacity:1" d="m 6,16 v 1.632812 l -1.416016,-0.816406 -0.5,0.867188 1.414063,0.816406 -1.414063,0.816406 0.5,0.867188 1.416016,-0.816406 v 1.632812 h 1 v -1.632812 l 1.416016,0.816406 0.5,-0.867188 -1.414063,-0.816406 1.414063,-0.816406 -0.5,-0.867188 -1.416016,0.816406 v -1.632812 z" />
</svg>

<svg height="24" width="24" xmlns="http://www.w3.org/2000/svg"><path style="fill:gray;fill-opacity:1" d="M13 2a6 6 0 0 0-5.648 4.016A4 4 0 1 0 7 14h11a3 3 0 0 0 .988-5.832L19 8a6 6 0 0 0-6-6zm0 1a5 5 0 0 1 5 5c-.005.34-.044.678-.117 1.01.039-.005.078-.008.117-.01a2 2 0 0 1 0 4H7a3 3 0 1 1 1.068-5.803 5 5 0 0 1 .27-.967A5 5 0 0 1 13 3zm-1 14v1.633l-1.416-.817-.5.868 1.414.816-1.414.816.5.868L12 20.367V22h1v-1.633l1.416.817.5-.868-1.414-.816 1.414-.816-.5-.868-1.416.817V17h-1zm6-2v1.633l-1.416-.817-.5.868 1.414.816-1.414.816.5.868L18 18.367V20h1v-1.633l1.416.817.5-.868-1.414-.816 1.414-.816-.5-.868-1.416.817V15zM6 16v1.633l-1.416-.817-.5.868 1.414.816-1.414.816.5.868L6 19.367V21h1v-1.633l1.416.817.5-.868-1.414-.816 1.414-.816-.5-.868L7 17.633V16z"/></svg>
